icons/pipeline.svg

<svg xmlns="http://www.w3.org/2000/svg" viewBox="0 0 32 32">
  <path d="M20,24H11.89923a4.966,4.966,0,0,0-.73077-1.75427L22.24573,11.16846A4.99716,4.99716,0,1,0,20.10077,6H11.89923a5,5,0,1,0,0,2h8.20154a4.966,4.966,0,0,0,.73077,1.75427L9.75427,20.83154A4.99716,4.99716,0,1,0,11.89923,26H20v4H30V20H20ZM7,10a3,3,0,1,1,3-3A3.00344,3.00344,0,0,1,7,10ZM25,4a3,3,0,1,1-3,3A3.00335,3.00335,0,0,1,25,4ZM7,28a3,3,0,1,1,3-3A3.00344,3.00344,0,0,1,7,28Zm15-6h6v6H22Z" style="fill: #f57f17"/>
</svg>

<svg xmlns="http://www.w3.org/2000/svg" viewBox="0 0 32 32"><path fill="#f57f17" d="M20 24h-8.1a4.966 4.966 0 0 0-.732-1.754l11.078-11.078A4.997 4.997 0 1 0 20.1 6h-8.202a5 5 0 1 0 0 2H20.1a4.966 4.966 0 0 0 .73 1.754L9.755 20.832A4.997 4.997 0 1 0 11.9 26H20v4h10V20H20ZM7 10a3 3 0 1 1 3-3 3.003 3.003 0 0 1-3 3Zm18-6a3 3 0 1 1-3 3 3.003 3.003 0 0 1 3-3ZM7 28a3 3 0 1 1 3-3 3.003 3.003 0 0 1-3 3Zm15-6h6v6h-6Z"/></svg>
